X: 72
T: Lupang de yushu
%%abc-version 2.0
%%abcx-abcm2ps-target-version 5.9.1 (29 Sep 2008)
%%abc-creator hum2abc beta
%%abcx-conversion-date 2013/10/02 07:44:27
%%abc-edited-by Helmut Schaffrath
%%humdrum-veritas 3359400484
%%humdrum-veritas-data 4044904423
%%continueall 1
%%barnumbers 0
L: 1/8
M: 2/4
K: E
c2c2 [I:setbarnb 1]| 
c BG2 | 
f ec2 | 
B GF2 | 
G> B c e | 
B G E F | 
G4- | 
G4 | 
f ec2 | 
c2F2 | 
c BG2 | 
G EC2 | 
C> E F G | 
G F E B, | 
C4- | 
C4 |]  



